X:115
T:It fell upon a certain day
Z:Jack Campin - http://www.campin.me.uk
S:Blaikie MS (NLS MS.1578) p34, Blaikie #109
M:2/4
L:1/8
V:1 midi program 1 74
V:2 midi program 1 46 bass middle = d transpose -24
Q:1/4=100
K:Bb
[V:1] F|BBcd|cFFF|BBed|c3 F|BBcd|cF Fd/e/|f>dec|B2z2||
[V:2] z|B2b2|a2f2|dBAB|Fffz|B2b2|a2 f2   |b2 fF|B2z2||
%
[V:1] BA/G/ FE|DFGC|BA/G/ FE|DF B|]
[V:2] e2    dc|B2e2|de````dc|Bb`b|]
W:Transcription (c) Jack Campin 2009, no mirroring or republication without permission

